X:1
T:Psalm 69
T:V 4
L:1/4
M:12/4
I:linebreak $
K:Eb
V:1 treble nm="Pipe Organ" snm="Org."
V:1
 G2 G E F G E D C3 z |$ G2 G F B G E F G3 z |$ G2 B c e d c =B c3 z |$ %3
w: Ook my ge- slag ver- werp my, want|'n y- wer vir u huis en eer-|dit het my soos 'n vuur ver- teer|
[M:12/4] c2 d c B =A G _G =G3 z |$ c2 B =A B G G F E3 z |$ A2 _A G E F E D C4 |] %6
w: en in my soos 'n vlam ge- brand;|smaad- woor- de son- der maat of tal|het, HEER, om U op my ge- val.|

